X:1
T:Church Vigilant, 98.98
T:Church Vigilant, 98.98
T:Charles Lincoln Ziegler, 1902
T:Public Domain Courtesy of the Cyber Hymnal™
C:Charles Lincoln Ziegler, 1902
Z:Public Domain
Z:Courtesy of the Cyber Hymnal™
%%score ( 1 2 ) 3
L:1/8
Q:1/4=90
M:3/4
K:Db
V:1 treble 
V:2 treble 
V:3 bass 
V:1
 D[DF] [EG] | [FA]3 [FA] [GB][Gd] | [Fd]2 [FA]F [EG][DA] | [EA]3 [CG] [CF][C=E] | %4
 [DF]3 D [DF][EG] | [FA]3 [FB] [F_c][Fe] | [Ge]2 [Gd][Fd] [Ec][=EB] | [FA]3 [FB] [GA][Ge] | %8
 [Fd]3 |] %9
V:2
 D x2 | x6 | x3 F x2 | x6 | x3 D x2 | x6 | x6 | x6 | x3 |] %9
V:3
 [D,D][D,C] [D,B,] | [D,A,]3 [D,A,] [D,G,][D,B,] | [D,A,]2 [D,A,][D,A,] [C,A,][B,,A,] | %3
 [C,A,]3 [A,,B,] [A,,A,][A,,G,] | [D,F,]3 [D,F,] [D,A,][D,B,] | [D,_C]3 [D,B,] [D,A,][D,C] | %6
 [G,_C]2 [G,B,][G,B,] [G,=C][G,D] | [A,D]3 [A,D] [A,E][A,C] | [D,A,]3 |] %9

